static/logos/snagit.svg

<svg height="43" viewBox="0 0 110 43" width="110" xmlns="http://www.w3.org/2000/svg" xmlns:xlink="http://www.w3.org/1999/xlink"><mask id="a" fill="#fff"><path d="m18.825443.13445638h-18.825443v32.65319592h18.825443z" fill="none"/></mask><mask id="b" fill="#fff"><path d="m19.4718483 32.6979866h-19.41217447v-32.56347385h19.41217447z" fill="none"/></mask><mask id="c" fill="#fff"><path d="m0 41.8655436h109.129812v-41.5836644h-109.129812z" fill="none"/></mask><g fill="#3c7cb5" fill-rule="evenodd"><path d="m1.30918792 27.3758537s3.20524832 3.5175705 8.442 3.5175705c3.92770468 0 7.04275168-2.4351544 7.04275168-6.2238927 0-8.9750335-16.16182551-6.4947785-16.16182551-16.37182546 0-4.1946443 3.74702014-8.16350336 9.48016111-8.16350336 5.1465503 0 8.035812 2.93154363 8.035812 2.93154363l-1.0832617 1.66900671s-2.7088591-2.70632215-6.9071678-2.70632215c-4.69526173 0-7.49404025 3.15704698-7.49404025 6.2241745 0 8.34362413 16.16182555 5.77316783 16.16182555 16.32672483 0 4.5554497-3.5215168 8.2083221-9.16445642 8.2083221-6.23009396 0-9.66112752-3.9237583-9.66112752-3.9237583z" mask="url(#a)" transform="translate(0 .147423)"/><path d="m21.9397852 9.84322148h1.8962014v3.96914092c0 1.0373155-.1806846 1.8488457-.1806846 1.8488457h.0902014c.767557-2.1194497 3.9277047-6.35919468 9.5706443-6.35919468 5.8690067 0 7.4489395 3.47275168 7.4489395 8.79491278v14.2969127h-1.8959194v-13.6204027c0-3.9237583-.4966712-7.6222953-5.5530201-7.6222953-4.2434094 0-7.9904296 2.9769262-9.1190739 7.1712886-.2708859.9471141-.3610872 1.9844296-.3610872 3.0665638v11.0048456h-1.8962014z"/><path d="m50.8772779 31.176149c4.9207651 0 7.7198255-5.0963758 7.7198255-9.5613423v-1.2177181h-1.4446309c-3.8375034 0-12.0537181 0-12.0537181 5.8633691 0 2.3903356 1.941302 4.9156913 5.7785235 4.9156913m6.2300939-12.5379866h1.4897316v-.7667114c0-5.0064564-2.5732752-6.7202819-6.1849933-6.7202819-3.9274229 0-6.4555973 2.1648322-6.4555973 2.1648322l-1.0835437-1.5334228s2.7088591-2.48053689 7.6296242-2.48053689c5.191651 0 7.9904295 2.88644299 7.9904295 8.52430869v14.5675168h-1.8959194v-2.9763624c0-1.218.1804026-2.0295302.1804026-2.0295302h-.0902013c.0451007 0-2.0315034 5.5471007-7.9002282 5.5471007-3.6568188 0-7.6747248-2.0292484-7.6747248-6.5393155 0-7.6673959 9.9771141-7.7575973 13.9950201-7.7575973"/><path d="m17.6210295 11.5903651c0-7.26148993-3.4310335-9.60672483-7.85512749-9.60672483-4.83056375 0-7.7198255 3.51785235-7.7198255 9.60672483 0 6.0888725 3.34083221 9.7871275 8.17111409 9.7871275 3.9728054 0 7.4038389-2.4805369 7.4038389-9.7871275m-8.62268453 19.2582685c4.83056373 0 8.57758393-2.3001343 8.57758393-7.7573155v-2.6158389c0-1.0373154.1804026-1.8494094.1804026-1.8494094h-.0902013c-1.3544295 2.7514228-3.8372215 4.6002685-7.5842416 4.6002685-5.86872484 0-10.02221477-4.6002685-10.02221477-11.6359732 0-7.03598658 3.83722147-11.45585235 9.70622818-11.45585235 6.41049669 0 7.85512749 4.41986577 7.85512749 4.41986577h.0902014s-.135302-.31570469-.135302-.85691275v-3.02174496h1.8959194v22.41559729c0 6.9004027-4.9658657 9.6067249-10.33791944 9.6067249-2.48307383 0-4.87566443-.6314094-7.08785235-1.7589262l.90285906-1.6687249s2.7990604 1.5782417 6.0494094 1.5782417" mask="url(#b)" transform="translate(63.14094 9.167557)"/><path d="m87.1271678 32.3938389h1.8962013v-22.55061742h-1.8962013zm-.1806846-28.27868454h2.2572886v-3.29234899h-2.2572886z" mask="url(#c)"/><path d="m94.2591342 11.692349h-2.9794631v-1.71382551h2.9794631v-6.4042953h1.8962014v6.4042953h5.9138254v1.71382551h-5.9138254v12.4029664c0 5.9532886 3.5663355 6.7202819 5.3720534 6.7202819.631973 0 1.038443-.0904832 1.038443-.0904832v1.759208s-.45157.0902014-1.128644.0902014c-2.34749 0-7.1780538-.8569128-7.1780538-8.3439061z" mask="url(#c)"/><path d="m106.561357 4.37493423c.310913 0 .510765-.19957047.510765-.5324698 0-.32500671-.199852-.50991946-.510765-.50991946h-.540362v1.04238926zm-.955007-1.38994631h1.029141c.510483 0 .865933.33994631.865933.85747651 0 .42902013-.273986.69511409-.540362.76163758v.0149396s.029315.03692618.096121.1626443l.555302 1.08664429h-.4589l-.57757-1.16810738h-.55502v1.16810738h-.414645zm.873544 3.73377181c1.258309 0 2.220644-.99813423 2.220644-2.29195973 0-1.27916779-.962335-2.28463087-2.220644-2.28463087-1.228711 0-2.176389 1.00546308-2.176389 2.28463087 0 1.2938255.947678 2.29195973 2.176389 2.29195973zm0-4.97601342c1.473101 0 2.649946 1.19037584 2.649946 2.68405369 0 1.50833557-1.176845 2.69110067-2.649946 2.69110067-1.443503 0-2.613302-1.1827651-2.613302-2.69110067 0-1.49367785 1.169799-2.68405369 2.613302-2.68405369z" mask="url(#c)"/></g></svg>

<?xml version="1.0" encoding="UTF-8"?>
<svg width="110px" height="43px" viewBox="0 0 110 43" version="1.1" xmlns="http://www.w3.org/2000/svg" xmlns:xlink="http://www.w3.org/1999/xlink">
    <!-- Generator: Sketch 46.1 (44463) - http://www.bohemiancoding.com/sketch -->
    <title>Snagit</title>
    <desc>Created with Sketch.</desc>
    <defs>
        <polygon id="path-1" points="18.825443 0.134456376 0 0.134456376 0 32.7876523 18.825443 32.7876523"></polygon>
        <polygon id="path-3" points="19.4718483 32.6979866 0.0596738255 32.6979866 0.0596738255 0.134512752 19.4718483 0.134512752"></polygon>
        <polygon id="path-5" points="0 41.8655436 109.129812 41.8655436 109.129812 0.281879195 0 0.281879195"></polygon>
    </defs>
    <g id="Page-1" stroke="none" stroke-width="1" fill="none" fill-rule="evenodd">
        <g id="Snagit">
            <g id="Page-1">
                <g id="Group-3" transform="translate(0.000000, 0.147423)">
                    <mask id="mask-2" fill="white">
                        <use xlink:href="#path-1"></use>
                    </mask>
                    <g id="Clip-2"></g>
                    <path d="M1.30918792,27.3758537 C1.30918792,27.3758537 4.51443624,30.8934242 9.75118792,30.8934242 C13.6788926,30.8934242 16.7939396,28.4582698 16.7939396,24.6695315 C16.7939396,15.694498 0.632114094,18.174753 0.632114094,8.29770604 C0.632114094,4.10306174 4.37913423,0.134202685 10.1122752,0.134202685 C15.2588255,0.134202685 18.1480872,3.06574631 18.1480872,3.06574631 L17.0648255,4.73475302 C17.0648255,4.73475302 14.3559664,2.02843087 10.1576577,2.02843087 C5.46239597,2.02843087 2.66361745,5.18547785 2.66361745,8.25260537 C2.66361745,16.5962295 18.825443,14.0257732 18.825443,24.5793302 C18.825443,29.1347799 15.3039262,32.7876523 9.66098658,32.7876523 C3.43089262,32.7876523 -0.000140939597,28.863894 -0.000140939597,28.863894 L1.30918792,27.3758537 Z" id="Fill-1" fill="#3C7CB5" mask="url(#mask-2)"></path>
                </g>
                <path d="M21.9397852,9.84322148 L23.8359866,9.84322148 L23.8359866,13.8123624 C23.8359866,14.8496779 23.655302,15.6612081 23.655302,15.6612081 L23.7455034,15.6612081 C24.5130604,13.5417584 27.6732081,9.30201342 33.3161477,9.30201342 C39.1851544,9.30201342 40.7650872,12.7747651 40.7650872,18.0969262 L40.7650872,32.3938389 L38.8691678,32.3938389 L38.8691678,18.7734362 C38.8691678,14.8496779 38.3724966,11.1511409 33.3161477,11.1511409 C29.0727383,11.1511409 25.3257181,14.1280671 24.1970738,18.3224295 C23.9261879,19.2695436 23.8359866,20.3068591 23.8359866,21.3889933 L23.8359866,32.3938389 L21.9397852,32.3938389 L21.9397852,9.84322148 Z" id="Fill-4" fill="#3C7CB5"></path>
                <path d="M50.8772779,31.176149 C55.798043,31.176149 58.5971034,26.0797732 58.5971034,21.6148067 L58.5971034,20.3970886 L57.1524725,20.3970886 C53.3149691,20.3970886 45.0987544,20.3970886 45.0987544,26.2604577 C45.0987544,28.6507933 47.0400564,31.176149 50.8772779,31.176149 M57.1073718,18.6381624 L58.5971034,18.6381624 L58.5971034,17.871451 C58.5971034,12.8649946 56.0238282,11.1511691 52.4121101,11.1511691 C48.4846872,11.1511691 45.9565128,13.3160013 45.9565128,13.3160013 L44.8729691,11.7825785 C44.8729691,11.7825785 47.5818282,9.30204161 52.5025933,9.30204161 C57.6942443,9.30204161 60.4930228,12.1884846 60.4930228,17.8263503 L60.4930228,32.3938671 L58.5971034,32.3938671 L58.5971034,29.4175047 C58.5971034,28.1995047 58.777506,27.3879745 58.777506,27.3879745 L58.6873047,27.3879745 C58.7324054,27.3879745 56.6558013,32.9350752 50.7870765,32.9350752 C47.1302577,32.9350752 43.1123517,30.9058268 43.1123517,26.3957597 C43.1123517,18.7283638 53.0894658,18.6381624 57.1073718,18.6381624" id="Fill-6" fill="#3C7CB5"></path>
                <g id="Group-10" transform="translate(63.140940, 9.167557)">
                    <mask id="mask-4" fill="white">
                        <use xlink:href="#path-3"></use>
                    </mask>
                    <g id="Clip-9"></g>
                    <path d="M17.6210295,11.5903651 C17.6210295,4.32887517 14.189996,1.98364027 9.76590201,1.98364027 C4.93533826,1.98364027 2.04607651,5.50149262 2.04607651,11.5903651 C2.04607651,17.6792376 5.38690872,21.3774926 10.2171906,21.3774926 C14.189996,21.3774926 17.6210295,18.8969557 17.6210295,11.5903651 M8.99834497,30.8486336 C13.8289087,30.8486336 17.5759289,28.5484993 17.5759289,23.0913181 L17.5759289,20.4754792 C17.5759289,19.4381638 17.7563315,18.6260698 17.7563315,18.6260698 L17.6661302,18.6260698 C16.3117007,21.3774926 13.8289087,23.2263383 10.0818886,23.2263383 C4.21316376,23.2263383 0.0596738255,18.6260698 0.0596738255,11.5903651 C0.0596738255,4.55437852 3.8968953,0.134512752 9.76590201,0.134512752 C16.1763987,0.134512752 17.6210295,4.55437852 17.6210295,4.55437852 L17.7112309,4.55437852 C17.7112309,4.55437852 17.5759289,4.23867383 17.5759289,3.69746577 L17.5759289,0.675720805 L19.4718483,0.675720805 L19.4718483,23.0913181 C19.4718483,29.9917208 14.5059826,32.698043 9.13392886,32.698043 C6.65085503,32.698043 4.25826443,32.0666336 2.04607651,30.9391168 L2.94893557,29.2703919 C2.94893557,29.2703919 5.74799597,30.8486336 8.99834497,30.8486336" id="Fill-8" fill="#3C7CB5" mask="url(#mask-4)"></path>
                </g>
                <mask id="mask-6" fill="white">
                    <use xlink:href="#path-5"></use>
                </mask>
                <g id="Clip-12"></g>
                <path d="M87.1271678,32.3938389 L89.0233691,32.3938389 L89.0233691,9.84322148 L87.1271678,9.84322148 L87.1271678,32.3938389 Z M86.9464832,4.11515436 L89.2037718,4.11515436 L89.2037718,0.822805369 L86.9464832,0.822805369 L86.9464832,4.11515436 Z" id="Fill-11" fill="#3C7CB5" mask="url(#mask-6)"></path>
                <path d="M94.2591342,11.692349 L91.2796711,11.692349 L91.2796711,9.97852349 L94.2591342,9.97852349 L94.2591342,3.57422819 L96.1553356,3.57422819 L96.1553356,9.97852349 L102.069161,9.97852349 L102.069161,11.692349 L96.1553356,11.692349 L96.1553356,24.0953154 C96.1553356,30.048604 99.7216711,30.8155973 101.527389,30.8155973 C102.159362,30.8155973 102.565832,30.7251141 102.565832,30.7251141 L102.565832,32.4843221 C102.565832,32.4843221 102.114262,32.5745235 101.437188,32.5745235 C99.089698,32.5745235 94.2591342,31.7176107 94.2591342,24.2306174 L94.2591342,11.692349 Z" id="Fill-13" fill="#3C7CB5" mask="url(#mask-6)"></path>
                <path d="M106.561357,4.37493423 C106.87227,4.37493423 107.072122,4.17536376 107.072122,3.84246443 C107.072122,3.51745772 106.87227,3.33254497 106.561357,3.33254497 L106.020995,3.33254497 L106.020995,4.37493423 L106.561357,4.37493423 Z M105.60635,2.98498792 L106.635491,2.98498792 C107.145974,2.98498792 107.501424,3.32493423 107.501424,3.84246443 C107.501424,4.27148456 107.227438,4.53757852 106.961062,4.60410201 L106.961062,4.61904161 C106.961062,4.61904161 106.990377,4.65596779 107.057183,4.78168591 L107.612485,5.8683302 L107.153585,5.8683302 L106.576015,4.70022282 L106.020995,4.70022282 L106.020995,5.8683302 L105.60635,5.8683302 L105.60635,2.98498792 Z M106.479894,6.71875973 C107.738203,6.71875973 108.700538,5.7206255 108.700538,4.4268 C108.700538,3.14763221 107.738203,2.14216913 106.479894,2.14216913 C105.251183,2.14216913 104.303505,3.14763221 104.303505,4.4268 C104.303505,5.7206255 105.251183,6.71875973 106.479894,6.71875973 L106.479894,6.71875973 Z M106.479894,1.74274631 C107.952995,1.74274631 109.12984,2.93312215 109.12984,4.4268 C109.12984,5.93513557 107.952995,7.11790067 106.479894,7.11790067 C105.036391,7.11790067 103.866592,5.93513557 103.866592,4.4268 C103.866592,2.93312215 105.036391,1.74274631 106.479894,1.74274631 L106.479894,1.74274631 Z" id="Fill-14" fill="#3C7CB5" mask="url(#mask-6)"></path>
            </g>
        </g>
    </g>
</svg>
